X: 259
T:Leg of the duck
R:Jig
D:Gerry O'Connor, Myriad, GarryKennedy Set
Z:Alf Warnock - alf0@rogers.com
M:6/8
L:1/8
K:D
A|fga efg|fef dBA|Bee e2e|Bee e2e|
fga efg|fef dBA|Bdd d2A|Bdd d2:|
|:e|fdd edd|fef dBA|Bee e2d|Bee e2e|
fdd edd|fef dBA|Bdd d2A|Bdd d2:|
